!!!!SEGMENT: pl-stab--12a--001-007_raszek-waclaw--missa-solemnis-ex-g-et-incarnatus.krn
!!!cenid: 18xx:3527
!!!COM: Raszek, Wacław
!!!COM-rismID: pe30020314
!!!CDT: <1848->1848
!!!CNT:
!!!OPR: Missa Solemnis ex G
!!!OTL: Et incarnatus
!!!OMV: 007
!!!PDT: 1815
!!!AGN: Sacred; Mass
!!!YEC: Copyright 2022 Narodowy Instytut Fryderyka Chopina (https://polishscores.org)
!!!YEM: License CC-BY-4.0 (https://creativecommons.org/licenses/by/4.0)
!!!SMS-siglum: PL-STAb
!!!SMS-shelfmark: 12a
!!!SMS-shelfwork: 001-007 M
!!!SMS-variant:
!!!SMS-altvar:
!!!NIFC-rismSourceID: 301050679
!!!NIFC-rismChildID: 301050679
!!!NIFC-islandoraID: pl-stab:2464
!!!URL-pdf-islandora: https://repozytorium.nifc.pl/islandora/object/pl-stab%3A2464/datastream/PDF/view
!!!URL-scan: https://polish.musicsources.pl/pl/lokalizacje/galeria/rekopisy/4407 @EN{Scan on Polish Music Sources Website} @PL{Skany w portalu Dziedzictwo Muzyki Polskiej w otwartym dostępie}
!!!IIIF:
!!!ONB-nifc: UWAGA: części Mszy: 1. Kyrie, 2. Gloria, 3. Domine Deus, 4. Cum sancto spiritu, 5. In gloria Dei Patris amen, 6. Credo, 7. Et incarnatus, 8. Et resurrexit, 9. Sanctus, 10. Pleni sunt, 11. Benedictus, 12. Agnus Dei, 13. Dona nobis
!!!AIN: 1 alto 1 bass 2 cor 2 flt 1 organ 1 soprn 1 tenor 1 viola 2 violn
!!!key: C
!!!OMD:
!!!OMD-mod: Adagio
**kern	**fba	**dynam	**kern	**dynam	**kern	**dynam	**kern	**dynam	**kern	**text	**dynam	**kern	**text	**dynam	**kern	**text	**dynam	**kern	**text	**dynam	**kern	**kern	**kern	**dynam	**kern	**dynam
*	*	*	*group4	*	*group4	*	*group4	*	*group3	*	*	*group3	*	*	*group3	*	*	*group3	*	*	*group2	*group2	*group1	*	*group1	*
*part12	*	*	*part11	*	*part10	*	*part9	*	*part8	*	*	*part7	*	*	*part6	*	*	*part5	*	*	*part4	*part3	*part2	*	*part1	*
*staff12	*	*	*staff11	*	*staff10	*	*staff9	*	*staff8	*	*	*staff7	*	*	*staff6	*	*	*staff5	*	*	*staff4	*staff3	*staff2	*	*staff1	*
*I"Organo	*	*	*I"Alto Viola	*	*I"Violino Secundo	*	*I"Violino Primo	*	*I"Baſso	*	*	*I"Tenore	*	*	*I"Alto	*	*	*I"Canto	*	*	*I"Cornu 2do	*I"Cornu 1 mo	*I"Flauto II do	*	*I"Flauto 1mo	*
*	*	*	*mI"Viola	*	*mI"Violino II	*	*mI"Violino I	*	*mI"Basso	*	*	*	*	*	*	*	*	*mI"Soprano	*	*	*mI"Corno II	*mI"Corno I	*mI"Flauto II	*	*mI"Flauto I	*
*I'org	*	*	*I'vla	*	*I'vl 2	*	*I'vl 1	*	*I'B	*	*	*I'T	*	*	*I'A	*	*	*I'S	*	*	*I'cor 2	*I'cor 1	*I'fl 2	*	*I'fl 1	*
*Iorgan	*	*	*Iviola	*	*Ivioln	*	*Ivioln	*	*Ibass	*	*	*Itenor	*	*	*Ialto	*	*	*Isoprn	*	*	*Icor	*Icor	*Iflt	*	*Iflt	*
*ICklav	*	*	*ICstr	*	*ICstr	*	*ICstr	*	*ICvox	*	*	*ICvox	*	*	*ICvox	*	*	*ICvox	*	*	*ICbras	*ICbras	*ICww	*	*ICww	*
*IGcont	*	*	*IGacmp	*	*IGacmp	*	*IGacmp	*	*IGcoro	*	*	*IGcoro	*	*	*IGcoro	*	*	*IGcoro	*	*	*IGacmp	*IGacmp	*IGacmp	*	*IGacmp	*
*clefF4	*	*	*clefC3	*	*clefG2	*	*clefG2	*	*clefF4	*	*	*clefC4	*	*	*clefC3	*	*	*clefC1	*	*	*clefG2	*clefG2	*clefG2	*	*clefG2	*
*	*	*	*	*	*	*	*	*	*	*	*	*mclefGv2	*	*	*mclefG2	*	*	*mclefG2	*	*	*	*	*	*	*	*
*k[fn]	*	*	*k[fn]	*	*k[fn]	*	*k[fn]	*	*k[f#]	*	*	*k[fn]	*	*	*k[fn]	*	*	*k[fn]	*	*	*k[]	*k[]	*k[fn]	*	*k[fn]	*
*mk[]	*	*	*mk[]	*	*mk[]	*	*mk[]	*	*mk[]	*	*	*mk[]	*	*	*mk[]	*	*	*mk[]	*	*	*mk[]	*mk[]	*mk[]	*	*mk[]	*
*C:	*	*	*C:	*	*C:	*	*C:	*	*C:	*	*	*C:	*	*	*C:	*	*	*C:	*	*	*C:	*C:	*C:	*	*C:	*
*M3/4	*	*	*M3/4	*	*M3/4	*	*M3/4	*	*M3/4	*	*	*M3/4	*	*	*M3/4	*	*	*M3/4	*	*	*M3/4	*M3/4	*M3/4	*	*M3/4	*
*	*	*	*	*	*	*	*	*	*	*	*	*	*	*	*	*	*	*	*	*	*tacet	*tacet	*	*	*	*
=1	=1	=1	=1	=1	=1	=1	=1	=1	=1	=1	=1	=1	=1	=1	=1	=1	=1	=1	=1	=1	=1	=1	=1	=1	=1	=1
!	!	!LO:MO:null:mod=!LO&colon;DY&colon;ed=brack	!	!	!	!LO:MO:null:mod=!LO&colon;DY&colon;ed=brack	!	!LO:MO:null:mod=!LO&colon;DY&colon;ed=brack	!	!	!	!	!	!	!	!	!	!	!	!	!	!	!	!	!	!
!LO:TX:t=P:problem=znak Fn	!	!	!LO:TX:t=P:problem=znak fn	!	!LO:TX:t=P:problem=znak ffn	!	!LO:TX:t=P:problem=znak ffn	!	!	!	!	!	!	!	!LO:TX:t=P:problem=znak ffn	!	!	!	!	!	!	!	!LO:TX:t=P:problem=znak ffn	!	!LO:TX:t=P:problem=znak ffn	!
!LO:TX:a:i:rj:t=Adagio:mod=	!	!LO:MO:null:mod=p	!LO:TX:a:i:rj:t=Adagio:mod=	!LO:DY:a	!	!LO:MO:null:mod=p	!LO:TX:a:i:rj:t=Adagio:mod=	!LO:MO:null:mod=p	!LO:TX:a:i:rj:t=Adagio:mod=	!	!	!LO:TX:a:Bi:rj:t=Adagio:mod=	!	!	!LO:TX:a:i:rj:t=Adagio:mod=	!	!	!LO:TX:a:Bi:t=Adagio:mod=	!	!	!LO:TX:a:i:t=Et in Carnatus Tacet	!LO:TX:a:i:t=Et incarnatus Tacet	!LO:TX:a:i:rj:t=Adagio:mod=	!	!LO:TX:a:i:rj:t=Adagio:mod=	!
4C/	.	.	4c\	p	4e 4G/	.	(8g\L	.	0.r	.	.	0.r	.	.	0.r	.	.	0.r	.	.	2.ryy	2.ryy	0.r	.	0.r	.
.	.	.	.	.	.	.	8cc\)	.	.	.	.	.	.	.	.	.	.	.	.	.	.	.	.	.	.	.
4r	.	.	4r	.	4r	.	8cc\|	.	.	.	.	.	.	.	.	.	.	.	.	.	.	.	.	.	.	.
.	.	.	.	.	.	.	8cc\|	.	.	.	.	.	.	.	.	.	.	.	.	.	.	.	.	.	.	.
4r	.	.	4r	.	4r	.	(8ee\	.	.	.	.	.	.	.	.	.	.	.	.	.	.	.	.	.	.	.
.	.	.	.	.	.	.	8gg\J)	.	.	.	.	.	.	.	.	.	.	.	.	.	.	.	.	.	.	.
=2	=2	=2	=2	=2	=2	=2	=2	=2	=2	=2	=2	=2	=2	=2	=2	=2	=2	=2	=2	=2	=2	=2	=2	=2	=2	=2
*	*	*	*tremolo	*	*tremolo	*	*	*	*	*	*	*	*	*	*	*	*	*	*	*	*	*	*	*	*	*
*	*	*	*2\right	*	*	*	*	*	*	*	*	*	*	*	*	*	*	*	*	*	*	*	*	*	*	*
1.r	.	.	8c\L	.	8eL 8G/	.	4.gg\	.	.	.	.	.	.	.	.	.	.	.	.	.	2.ryy	2.ryy	.	.	.	.
.	.	.	8c\	.	8e 8G/	.	.	.	.	.	.	.	.	.	.	.	.	.	.	.	.	.	.	.	.	.
.	.	.	8c\	.	8e 8G/	.	.	.	.	.	.	.	.	.	.	.	.	.	.	.	.	.	.	.	.	.
.	.	.	8c\	.	8e 8G/	.	16ccc\LL	.	.	.	.	.	.	.	.	.	.	.	.	.	.	.	.	.	.	.
.	.	.	.	.	.	.	16aa\JJ	.	.	.	.	.	.	.	.	.	.	.	.	.	.	.	.	.	.	.
.	.	.	8c\	.	8e 8G/	.	8gg\L	.	.	.	.	.	.	.	.	.	.	.	.	.	.	.	.	.	.	.
.	.	.	8c\J	.	8eJ 8G/	.	8gg\J	.	.	.	.	.	.	.	.	.	.	.	.	.	.	.	.	.	.	.
=3	=3	=3	=3	=3	=3	=3	=3	=3	=3	=3	=3	=3	=3	=3	=3	=3	=3	=3	=3	=3	=3	=3	=3	=3	=3	=3
.	.	.	8B/L	.	8d/L	.	4gg\	.	.	.	.	.	.	.	.	.	.	.	.	.	2.ryy	2.ryy	.	.	.	.
.	.	.	8B/	.	8d/	.	.	.	.	.	.	.	.	.	.	.	.	.	.	.	.	.	.	.	.	.
.	.	.	8B/	.	8d/	.	16ff#X\LL	.	.	.	.	.	.	.	.	.	.	.	.	.	.	.	.	.	.	.
.	.	.	.	.	.	.	16gg\	.	.	.	.	.	.	.	.	.	.	.	.	.	.	.	.	.	.	.
.	.	.	8B/	.	8d/	.	16aa\	.	.	.	.	.	.	.	.	.	.	.	.	.	.	.	.	.	.	.
.	.	.	.	.	.	.	16gg\JJ	.	.	.	.	.	.	.	.	.	.	.	.	.	.	.	.	.	.	.
.	.	.	8B/	.	8d/	.	8gg\L	.	.	.	.	.	.	.	.	.	.	.	.	.	.	.	.	.	.	.
.	.	.	8B/J	.	8d/J	.	8ffn\J	.	.	.	.	.	.	.	.	.	.	.	.	.	.	.	.	.	.	.
*	*	*	*Xtremolo	*	*Xtremolo	*	*	*	*	*	*	*	*	*	*	*	*	*	*	*	*	*	*	*	*	*
=4	=4	=4	=4	=4	=4	=4	=4	=4	=4	=4	=4	=4	=4	=4	=4	=4	=4	=4	=4	=4	=4	=4	=4	=4	=4	=4
2.r	.	.	8c\L	.	8g/L	.	16ff\LL	.	.	.	.	.	.	.	.	.	.	.	.	.	2.ryy	2.ryy	.	.	.	.
.	.	.	.	.	.	.	16ee\	.	.	.	.	.	.	.	.	.	.	.	.	.	.	.	.	.	.	.
.	.	.	8c\J	.	16f/L	.	16aa\	.	.	.	.	.	.	.	.	.	.	.	.	.	.	.	.	.	.	.
.	.	.	.	.	16e/JJ	.	16gg\JJ	.	.	.	.	.	.	.	.	.	.	.	.	.	.	.	.	.	.	.
.	.	.	4c\	.	4e/	.	8gg\L	.	.	.	.	.	.	.	.	.	.	.	.	.	.	.	.	.	.	.
.	.	.	.	.	.	.	8ee\	.	.	.	.	.	.	.	.	.	.	.	.	.	.	.	.	.	.	.
.	.	.	4r	.	4r	.	8dd\	.	.	.	.	.	.	.	.	.	.	.	.	.	.	.	.	.	.	.
.	.	.	.	.	.	.	8cc\J	.	.	.	.	.	.	.	.	.	.	.	.	.	.	.	.	.	.	.
=5	=5	=5	=5	=5	=5	=5	=5	=5	=5	=5	=5	=5	=5	=5	=5	=5	=5	=5	=5	=5	=5	=5	=5	=5	=5	=5
*	*	*	*tremolo	*	*	*	*tremolo	*	*	*	*	*	*	*	*	*	*	*	*	*	*	*	*	*	*	*
*	*	*	*	*	*	*	*2\right	*	*2\right	*	*	*2\right	*	*	*2\right	*	*	*2\right	*	*	*	*	*2\right	*	*2\right	*
!	!	!	!	!	!	!	!	!	!	!	!LO:MO:null:mod=!LO&colon;DY&colon;ed=brack	!	!	!	!	!	!	!	!	!	!	!	!	!	!	!LO:MO:null:mod=!LO&colon;DY&colon;ed=brack
!	!	!LO:DY:a:t=for	!	!LO:DY:a	!	!LO:DY:a	!	!LO:DY:a:t=f.p.	!	!	!	!	!	!LO:DY:a	!	!	!LO:DY:a:rj	!	!	!LO:DY:a	!	!	!	!LO:DY:a:rj	!	!
!	!	!LO:MO:mod=fp	!	!	!	!LO:MO:mod=fp	!	!	!	!	!LO:MO:null:mod=p	!	!	!	!	!	!	!	!	!	!	!	!	!	!	!LO:MO:null:mod=p
8E\L	.	f	8g\L	fp	8c/L	f	8b-X\L	fp	2.E\	Et	.	2.cn\	Et	p	2.g\	Et	p	2.b-X\	Et	p	2.ryy	2.ryy	2.gg\	p	2.bb-X\	.
8E\	.	.	8g\	.	8c/	.	8b-\	.	.	.	.	.	.	.	.	.	.	.	.	.	.	.	.	.	.	.
!	!	!	!	!	!	!LO:DY:a	!	!	!	!	!	!	!	!	!	!	!	!	!	!	!	!	!	!	!	!
!	!	!	!	!	!	!LO:MO:null:mod=.	!	!	!	!	!	!	!	!	!	!	!	!	!	!	!	!	!	!	!	!
8E\	6 -5	.	8g\	.	8c/	p	8b-\	.	.	.	.	.	.	.	.	.	.	.	.	.	.	.	.	.	.	.
8E\	.	.	8g\	.	8c/	.	8b-\	.	.	.	.	.	.	.	.	.	.	.	.	.	.	.	.	.	.	.
!	!	!LO:DY:a:t=p&colon;	!	!	!	!	!	!	!	!	!	!	!	!	!	!	!	!	!	!	!	!	!	!	!	!
!	!	!LO:MO:null:mod=.	!	!	!	!	!	!	!	!	!	!	!	!	!	!	!	!	!	!	!	!	!	!	!	!
8E\	.	p	8g\	.	8c/	.	8b-\	.	.	.	.	.	.	.	.	.	.	.	.	.	.	.	.	.	.	.
8E\J	.	.	8g\J	.	8c/J	.	8b-\J	.	.	.	.	.	.	.	.	.	.	.	.	.	.	.	.	.	.	.
=6	=6	=6	=6	=6	=6	=6	=6	=6	=6	=6	=6	=6	=6	=6	=6	=6	=6	=6	=6	=6	=6	=6	=6	=6	=6	=6
*tremolo	*	*	*	*	*tremolo	*	*	*	*	*	*	*	*	*	*	*	*	*	*	*	*	*	*	*	*	*
*2\right	*	*	*	*	*	*	*	*	*	*	*	*	*	*	*	*	*	*	*	*	*	*	*	*	*	*
!	!	!LO:DY:a:t=for	!	!LO:DY:a	!	!LO:DY:a	!	!LO:DY:a:t=fp.	!	!	!	!	!	!	!	!	!	!	!	!	!	!	!	!	!	!
!	!	!LO:MO:mod=fp	!	!	!	!	!	!	!	!	!	!	!	!	!	!	!	!	!	!	!	!	!	!	!	!
8Fn\L	n	f	8f\L	fp	8c/L	fp	8a/L	fp	2Fn\	in-	.	2c\	in-	.	2fn\	in-	.	2a\	in-	.	2.ryy	2.ryy	2.ffn\	.	2.aa\	.
8F\	.	.	8f\	.	8c/	.	8a/	.	.	.	.	.	.	.	.	.	.	.	.	.	.	.	.	.	.	.
8F\	.	.	8f\	.	8c/	.	8a/	.	.	.	.	.	.	.	.	.	.	.	.	.	.	.	.	.	.	.
8F\	.	.	8f\	.	8c/	.	8a/	.	.	.	.	.	.	.	.	.	.	.	.	.	.	.	.	.	.	.
!	!	!LO:DY:a	!	!	!	!	!	!	!	!	!	!	!	!	!	!	!	!	!	!	!	!	!	!	!	!
!	!	!LO:MO:null:mod=.	!	!	!	!	!	!	!	!	!	!	!	!	!	!	!	!	!	!	!	!	!	!	!	!
8F\	.	p	8f\	.	8c/	.	8a/	.	4F\	-car-	.	4c\	-car-	.	4f\	-car-	.	4a\	-car-	.	.	.	.	.	.	.
8F\J	.	.	8f\J	.	8c/J	.	8a/J	.	.	.	.	.	.	.	.	.	.	.	.	.	.	.	.	.	.	.
=7	=7	=7	=7	=7	=7	=7	=7	=7	=7	=7	=7	=7	=7	=7	=7	=7	=7	=7	=7	=7	=7	=7	=7	=7	=7	=7
!	!	!LO:DY:a:t=f.	!	!LO:DY:a	!	!LO:DY:a	!	!LO:DY:a:t=fp.	!	!	!	!	!	!	!	!	!	!	!	!	!	!	!	!	!	!
!	!	!LO:MO:mod=fp	!	!	!	!	!	!	!	!	!	!	!	!	!	!	!	!	!	!	!	!	!	!	!	!
8E\L	6 -3	f	8g\L	fp	8c/L	fp	8b-X\L	fp	2E\	-na-	.	2c\	-na-	.	2g\	-na-	.	2b-X\	-na-	.	2.ryy	2.ryy	2.gg\	.	2.bb-X\	.
8E\	.	.	8g\	.	8c/	.	8b-\	.	.	.	.	.	.	.	.	.	.	.	.	.	.	.	.	.	.	.
8E\	.	.	8g\	.	8c/	.	8b-\	.	.	.	.	.	.	.	.	.	.	.	.	.	.	.	.	.	.	.
8E\	.	.	8g\	.	8c/	.	8b-\	.	.	.	.	.	.	.	.	.	.	.	.	.	.	.	.	.	.	.
!	!	!LO:DY:a	!	!	!	!	!	!	!	!	!	!	!	!	!	!	!	!	!	!	!	!	!	!	!	!
!	!	!LO:MO:null:mod=.	!	!	!	!	!	!	!	!	!	!	!	!	!	!	!	!	!	!	!	!	!	!	!	!
8E\	.	p	8g\	.	8c/	.	8b-\	.	4E\	-tus	.	4c\	-tus	.	4g\	-tus	.	4b-\	-tus	.	.	.	.	.	.	.
8E\J	.	.	8g\J	.	8c/J	.	8b-\J	.	.	.	.	.	.	.	.	.	.	.	.	.	.	.	.	.	.	.
=8	=8	=8	=8	=8	=8	=8	=8	=8	=8	=8	=8	=8	=8	=8	=8	=8	=8	=8	=8	=8	=8	=8	=8	=8	=8	=8
!	!	!LO:DY:a:t=f.	!	!LO:DY:a	!	!LO:DY:a	!	!LO:DY:a:t=fp.	!LO:SIC:v:o=2F#\	!	!	!	!	!	!	!	!	!	!	!	!	!	!	!	!	!
!	!	!LO:MO:mod=fp	!	!	!	!	!	!LO:MO:mod=fp	!	!	!	!	!	!	!	!	!	!	!	!	!	!	!	!	!	!
8F\L	.	f	8f\L	fp	8c/L	fp	8a/L	f	2Fn\	est	.	2c\	est	.	2f\	est	.	2a\	est	.	2.ryy	2.ryy	2.ff\	.	2.aa\	.
8F\	.	.	8f\	.	8c/	.	8a/	.	.	.	.	.	.	.	.	.	.	.	.	.	.	.	.	.	.	.
8F\	.	.	8f\	.	8c/	.	8a/	.	.	.	.	.	.	.	.	.	.	.	.	.	.	.	.	.	.	.
8F\	.	.	8f\	.	8c/	.	8a/	.	.	.	.	.	.	.	.	.	.	.	.	.	.	.	.	.	.	.
!	!	!LO:DY:a:t=p.	!	!	!	!	!	!	!LO:SIC:v:o=4F#\	!	!	!	!	!	!	!	!	!	!	!	!	!	!	!	!	!
!	!	!LO:MO:null:mod=.	!	!	!	!	!	!	!	!	!	!	!	!	!	!	!	!	!	!	!	!	!	!	!	!
8F\	.	p	8f\	.	8c/	.	8a/	.	4F\	de	.	4c\	de	.	4f\	de	.	4a\	de	.	.	.	.	.	.	.
8F\J	.	.	8f\J	.	8c/J	.	8a/J	.	.	.	.	.	.	.	.	.	.	.	.	.	.	.	.	.	.	.
=9	=9	=9	=9	=9	=9	=9	=9	=9	=9	=9	=9	=9	=9	=9	=9	=9	=9	=9	=9	=9	=9	=9	=9	=9	=9	=9
!	!	!LO:DY:a	!	!LO:DY:a	!	!LO:DY:a	!	!LO:DY:a:t=fp.	!	!	!	!	!	!	!	!	!	!	!	!	!	!	!	!	!	!
!	!	!LO:MO:mod=fp	!	!	!	!	!	!	!	!	!	!	!	!	!	!	!	!	!	!	!	!	!	!	!	!
8E\L	6\	f	8A/L	fp	8g/L	fp	8cc#X\L	fp	4.E\	Spi-	.	4.A\	Spi-	.	4.g\	Spi-	.	4.cc#X\	Spi-	.	2.ryy	2.ryy	2.gg\	.	2.ccc#X\	.
8E\	.	.	8A/	.	8g/	.	8cc#\	.	.	.	.	.	.	.	.	.	.	.	.	.	.	.	.	.	.	.
8E\	.	.	8A/	.	8g/	.	8cc#\	.	.	.	.	.	.	.	.	.	.	.	.	.	.	.	.	.	.	.
8E\	.	.	8A/	.	8g/	.	8cc#\	.	8E\	-ri-	.	8A\	-ri-	.	8g\	-ri-	.	8cc#\	-ri-	.	.	.	.	.	.	.
!	!	!LO:DY:a	!	!	!	!	!	!	!	!	!	!	!	!	!	!	!	!	!	!	!	!	!	!	!	!
!	!	!LO:MO:null:mod=.	!	!	!	!	!	!	!	!	!	!	!	!	!	!	!	!	!	!	!	!	!	!	!	!
8E\	.	p	8A/	.	8g/	.	8cc#\	.	4E\	-tu	.	4A\	-tu	.	4g\	-tu	.	4cc#\	-tu	.	.	.	.	.	.	.
8E\J	.	.	8A/J	.	8g/J	.	8cc#\J	.	.	.	.	.	.	.	.	.	.	.	.	.	.	.	.	.	.	.
*Xtremolo	*	*	*Xtremolo	*	*Xtremolo	*	*Xtremolo	*	*	*	*	*	*	*	*	*	*	*	*	*	*	*	*	*	*	*
=10	=10	=10	=10	=10	=10	=10	=10	=10	=10	=10	=10	=10	=10	=10	=10	=10	=10	=10	=10	=10	=10	=10	=10	=10	=10	=10
!	!	!	!	!	!	!	!	!	!LO:SIC:v:o=4F#\	!	!	!	!	!	!	!	!	!	!	!	!	!	!	!	!	!
4F\	6	.	4A/	.	4a/	.	4dd\	.	4Fn\	San-	.	4A\	San-	.	4f\	San-	.	4dd\	San-	.	2.ryy	2.ryy	4ffn\	.	4ddd\	.
!	!	!	!	!	!	!	!	!	!LO:SIC:v:o=4F#\	!	!	!	!	!	!	!	!	!	!	!	!	!	!	!	!	!
4F\	.	.	4r	.	4r	.	16cc#X\LL	.	4F\	-cto	.	4A\	-cto	.	4f\	-cto	.	4dd\	-cto	.	.	.	4r	.	4r	.
.	.	.	.	.	.	.	16dd\	.	.	.	.	.	.	.	.	.	.	.	.	.	.	.	.	.	.	.
.	.	.	.	.	.	.	16ee\	.	.	.	.	.	.	.	.	.	.	.	.	.	.	.	.	.	.	.
.	.	.	.	.	.	.	16dd\JJ	.	.	.	.	.	.	.	.	.	.	.	.	.	.	.	.	.	.	.
!	!	!	!	!	!	!	!LO:LB:g=original	!	!	!	!	!	!	!	!	!	!	!	!	!	!	!	!	!	!	!
4r	.	.	4r	.	4r	.	16cc#\LL	.	4r	.	.	4r	.	.	4r	.	.	4r	.	.	.	.	4r	.	4r	.
.	.	.	.	.	.	.	16dd\	.	.	.	.	.	.	.	.	.	.	.	.	.	.	.	.	.	.	.
.	.	.	.	.	.	.	16ee\	.	.	.	.	.	.	.	.	.	.	.	.	.	.	.	.	.	.	.
.	.	.	.	.	.	.	16dd\JJ	.	.	.	.	.	.	.	.	.	.	.	.	.	.	.	.	.	.	.
!	!	!	!LO:LB:g=original	!	!	!	!	!	!	!	!	!	!	!	!	!	!	!	!	!	!	!	!	!	!	!
=11	=11	=11	=11	=11	=11	=11	=11	=11	=11	=11	=11	=11	=11	=11	=11	=11	=11	=11	=11	=11	=11	=11	=11	=11	=11	=11
*tremolo	*	*	*tremolo	*	*tremolo	*	*tremolo	*	*	*	*	*	*	*	*	*	*	*	*	*	*	*	*	*	*	*
!	!	!LO:MO:null:mod=!LO&colon;DY&colon;ed=brack	!	!LO:MO:null:mod=!LO&colon;DY&colon;ed=brack	!	!	!	!	!	!	!	!	!	!	!	!	!	!	!	!	!	!	!	!	!	!
!	!	!	!	!	!	!	!	!	!	!	!	!	!	!	!	!	!	!	!	!	!	!	!	!	!	!
!	!	!LO:MO:null:mod=fp	!	!LO:MO:null:mod=fp	!	!LO:DY:a	!	!LO:DY:a:t=fp.	!	!	!	!	!	!	!	!	!	!	!LO:MO:mod=na	!	!	!	!	!	!	!
8F#X\L	6 5	.	8A/L	.	8d/L	fp	8ccn\L	fp	2F#X\	na-	.	2d\	na-	.	2a\	na-	.	2ccn\	Na-	.	2.ryy	2.ryy	2.aa\	.	2.cccn\	.
8F#\	.	.	8A/	.	8d/	.	8ccn\	.	.	.	.	.	.	.	.	.	.	.	.	.	.	.	.	.	.	.
8F#\	.	.	8A/	.	8d/	.	8ccn\	.	.	.	.	.	.	.	.	.	.	.	.	.	.	.	.	.	.	.
8F#\	.	.	8A/	.	8d/	.	8ccn\	.	.	.	.	.	.	.	.	.	.	.	.	.	.	.	.	.	.	.
8F#\	.	.	8A/	.	8d/	.	8ccn\	.	4F#\	-tus	.	4d\	-tus	.	4a\	-tus	.	4cc\	-tus	.	.	.	.	.	.	.
8F#\J	.	.	8A/J	.	8d/J	.	8ccn\J	.	.	.	.	.	.	.	.	.	.	.	.	.	.	.	.	.	.	.
!	!	!	!	!	!	!	!	!	!LO:LB:g=original	!	!	!LO:LB:g=original	!	!	!	!	!	!	!	!	!	!	!	!	!	!
=12	=12	=12	=12	=12	=12	=12	=12	=12	=12	=12	=12	=12	=12	=12	=12	=12	=12	=12	=12	=12	=12	=12	=12	=12	=12	=12
!	!	!	!	!	!	!LO:DY:a	!LO:TX:a:t=h:mod=	!	!	!	!	!	!	!	!	!	!	!	!	!	!	!	!	!	!	!
!	!	!	!	!	!	!LO:MO:null:mod=.	!	!	!	!	!	!	!	!	!	!	!	!	!	!	!	!	!	!	!	!
8G\L	n	.	8G/L	.	8d/L	fp	8b\L	.	2G\	ex	.	2d\	ex	.	2g\	ex	.	2bn\	ex	.	2.ryy	2.ryy	2.gg\	.	2.bb\	.
8G\	.	.	8G/	.	8d/	.	8b\	.	.	.	.	.	.	.	.	.	.	.	.	.	.	.	.	.	.	.
8G\	.	.	8G/	.	8d/	.	8b\	.	.	.	.	.	.	.	.	.	.	.	.	.	.	.	.	.	.	.
8G\	.	.	8G/	.	8d/	.	8b\	.	.	.	.	.	.	.	.	.	.	.	.	.	.	.	.	.	.	.
8G\	.	.	8G/	.	8d/	.	8b\	.	4G\	Ma-	.	4d\	Ma-	.	4g\	Ma-	.	4b\	Ma-	.	.	.	.	.	.	.
8G\J	.	.	8G/J	.	8d/J	.	8b\J	.	.	.	.	.	.	.	.	.	.	.	.	.	.	.	.	.	.	.
!	!	!	!	!	!	!	!	!	!	!	!	!	!	!	!LO:LB:g=original	!	!	!LO:LB:g=original	!	!	!	!	!	!	!	!
=13	=13	=13	=13	=13	=13	=13	=13	=13	=13	=13	=13	=13	=13	=13	=13	=13	=13	=13	=13	=13	=13	=13	=13	=13	=13	=13
8F#X\L	6 5	.	8A/L	.	8d/L	.	8cc\L	.	2.F#\	-ri-	.	2.d\	-ri-	.	2.a\	-ri-	.	2.cc\	-ri-	.	2.ryy	2.ryy	2.aa\	.	2.ccc\	.
8F#\	.	.	8A/	.	8d/	.	8cc\	.	.	.	.	.	.	.	.	.	.	.	.	.	.	.	.	.	.	.
8F#\	.	.	8A/	.	8d/	.	8cc\	.	.	.	.	.	.	.	.	.	.	.	.	.	.	.	.	.	.	.
8F#\	.	.	8A/	.	8d/	.	8cc\	.	.	.	.	.	.	.	.	.	.	.	.	.	.	.	.	.	.	.
8F#\	.	.	8A/	.	8d/	.	8cc\	.	.	.	.	.	.	.	.	.	.	.	.	.	.	.	.	.	.	.
8F#\J	.	.	8A/J	.	8d/J	.	8cc\J	.	.	.	.	.	.	.	.	.	.	.	.	.	.	.	.	.	.	.
=14	=14	=14	=14	=14	=14	=14	=14	=14	=14	=14	=14	=14	=14	=14	=14	=14	=14	=14	=14	=14	=14	=14	=14	=14	=14	=14
8G\L	.	.	8G/L	.	8d/L	.	8b\L	.	2.G\	-a	.	2.d\	-a	.	2.g\	-a	.	2.b\	-a	.	2.ryy	2.ryy	2.gg\	.	2.bb\	.
8G\	.	.	8G/	.	8d/	.	8b\	.	.	.	.	.	.	.	.	.	.	.	.	.	.	.	.	.	.	.
8G\	.	.	8G/	.	8d/	.	8b\	.	.	.	.	.	.	.	.	.	.	.	.	.	.	.	.	.	.	.
8G\	.	.	8G/	.	8d/	.	8b\	.	.	.	.	.	.	.	.	.	.	.	.	.	.	.	.	.	.	.
8G\	.	.	8G/	.	8d/	.	8b\	.	.	.	.	.	.	.	.	.	.	.	.	.	.	.	.	.	.	.
8G\J	.	.	8G/J	.	8d/J	.	8b\J	.	.	.	.	.	.	.	.	.	.	.	.	.	.	.	.	.	.	.
!LO:LB:g=original	!	!	!	!	!LO:LB:g=original	!	!	!	!	!	!	!	!	!	!	!	!	!	!	!	!	!	!	!	!	!
=15	=15	=15	=15	=15	=15	=15	=15	=15	=15	=15	=15	=15	=15	=15	=15	=15	=15	=15	=15	=15	=15	=15	=15	=15	=15	=15
8F#X\L	6\	.	8B/L	.	8a/L	.	8dd#X\L	.	2F#X\	Vir-	.	2B\	Vir-	.	2a\	Vir-	.	2dd#X\	Vir-	.	2.ryy	2.ryy	2.aa\	.	2.ddd#X\	.
8F#\	.	.	8B/	.	8a/	.	8dd#\	.	.	.	.	.	.	.	.	.	.	.	.	.	.	.	.	.	.	.
8F#\	.	.	8B/	.	8a/	.	8dd#\	.	.	.	.	.	.	.	.	.	.	.	.	.	.	.	.	.	.	.
8F#\	.	.	8B/	.	8a/	.	8dd#\	.	.	.	.	.	.	.	.	.	.	.	.	.	.	.	.	.	.	.
8F#\	.	.	8B/	.	8a/	.	8dd#\	.	4F#\	-gi-	.	4B\	-gi-	.	4a\	-gi-	.	4dd#\	-gi-	.	.	.	.	.	.	.
8F#\J	.	.	8B/J	.	8a/J	.	8dd#\J	.	.	.	.	.	.	.	.	.	.	.	.	.	.	.	.	.	.	.
*Xtremolo	*	*	*Xtremolo	*	*Xtremolo	*	*Xtremolo	*	*	*	*	*	*	*	*	*	*	*	*	*	*	*	*	*	*	*
!	!	!	!	!	!	!	!	!	!	!	!	!	!	!	!	!	!	!	!	!	!	!	!	!	!LO:LB:g=original	!
=16	=16	=16	=16	=16	=16	=16	=16	=16	=16	=16	=16	=16	=16	=16	=16	=16	=16	=16	=16	=16	=16	=16	=16	=16	=16	=16
4G\	6	.	4B/	.	4b\	.	4ee\	.	4G\	-ne	.	4B\	-ne	.	4g\	-ne	.	4ee\	-ne	.	2.ryy	2.ryy	4gg\	.	4eee\	.
4r	.	.	4r	.	4r	.	16dd#X\LL	.	4r	.	.	4r	.	.	4r	.	.	4r	.	.	.	.	4r	.	4r	.
.	.	.	.	.	.	.	16ee\	.	.	.	.	.	.	.	.	.	.	.	.	.	.	.	.	.	.	.
.	.	.	.	.	.	.	16ff#X\	.	.	.	.	.	.	.	.	.	.	.	.	.	.	.	.	.	.	.
.	.	.	.	.	.	.	16ee\JJ	.	.	.	.	.	.	.	.	.	.	.	.	.	.	.	.	.	.	.
4r	.	.	4r	.	4r	.	16dd#\LL	.	4r	.	.	4r	.	.	4r	.	.	4r	.	.	.	.	4r	.	4r	.
.	.	.	.	.	.	.	16ee\	.	.	.	.	.	.	.	.	.	.	.	.	.	.	.	.	.	.	.
.	.	.	.	.	.	.	16ff#\	.	.	.	.	.	.	.	.	.	.	.	.	.	.	.	.	.	.	.
.	.	.	.	.	.	.	16ee\JJ	.	.	.	.	.	.	.	.	.	.	.	.	.	.	.	.	.	.	.
!	!	!	!	!	!	!	!	!	!	!	!	!	!	!	!	!	!	!	!	!	!	!	!LO:LB:g=original	!	!	!
=17	=17	=17	=17	=17	=17	=17	=17	=17	=17	=17	=17	=17	=17	=17	=17	=17	=17	=17	=17	=17	=17	=17	=17	=17	=17	=17
*tremolo	*	*	*tremolo	*	*tremolo	*	*tremolo	*	*	*	*	*	*	*	*	*	*	*	*	*	*	*	*	*	*	*
!	!	!	!	!	!	!	!	!LO:DY:a:t=fp.	!	!	!	!	!	!	!	!	!	!	!	!	!	!	!	!	!	!
8G#X\L	6 3	.	8B/L	.	8e/L	.	8ddn\L	fp	2.G#X\	et	.	2.B\	et	.	2.e\	et	.	2.ddn\	et	.	2.ryy	2.ryy	2.bb\	.	2.dddn\	.
8G#\	.	.	8B/	.	8e/	.	8dd\	.	.	.	.	.	.	.	.	.	.	.	.	.	.	.	.	.	.	.
8G#\	.	.	8B/	.	8e/	.	8dd\	.	.	.	.	.	.	.	.	.	.	.	.	.	.	.	.	.	.	.
8G#\	.	.	8B/	.	8e/	.	8dd\	.	.	.	.	.	.	.	.	.	.	.	.	.	.	.	.	.	.	.
8G#\	.	.	8B/	.	8e/	.	8dd\	.	.	.	.	.	.	.	.	.	.	.	.	.	.	.	.	.	.	.
8G#\J	.	.	8B/J	.	8e/J	.	8dd\J	.	.	.	.	.	.	.	.	.	.	.	.	.	.	.	.	.	.	.
=18	=18	=18	=18	=18	=18	=18	=18	=18	=18	=18	=18	=18	=18	=18	=18	=18	=18	=18	=18	=18	=18	=18	=18	=18	=18	=18
8AT\L	.	.	8A/L	.	8e/L	.	8cc\L	.	2A\	ho-	.	2A\	ho-	.	2e\	ho-	.	2cc\	ho-	.	2.ryy	2.ryy	2.aa\	.	2.ccc\	.
8A\	.	.	8A/	.	8e/	.	8cc\	.	.	.	.	.	.	.	.	.	.	.	.	.	.	.	.	.	.	.
8A\	.	.	8A/	.	8e/	.	8cc\	.	.	.	.	.	.	.	.	.	.	.	.	.	.	.	.	.	.	.
8A\	.	.	8A/	.	8e/	.	8cc\	.	.	.	.	.	.	.	.	.	.	.	.	.	.	.	.	.	.	.
8A\	.	.	8A/	.	8e/	.	8cc\	.	4A\	-mo	.	4A\	-mo	.	4e\	-mo	.	4cc\	-mo	.	.	.	.	.	.	.
8A\J	.	.	8A/J	.	8e/J	.	8cc\J	.	.	.	.	.	.	.	.	.	.	.	.	.	.	.	.	.	.	.
=19	=19	=19	=19	=19	=19	=19	=19	=19	=19	=19	=19	=19	=19	=19	=19	=19	=19	=19	=19	=19	=19	=19	=19	=19	=19	=19
*	*	*	*	*	*	*	*	*	*	*ij	*	*	*ij	*	*	*ij	*	*	*ij	*	*	*	*	*	*	*
8F#X\L	6 5	.	8A/L	.	8d/L	.	8cc\L	.	2.F#X\	ho-	.	2.A\	ho-	.	2.d\	ho-	.	2.cc\	ho-	.	2.ryy	2.ryy	2.aa\	.	2.ccc\	.
8F#\	.	.	8A/	.	8d/	.	8cc\	.	.	.	.	.	.	.	.	.	.	.	.	.	.	.	.	.	.	.
8F#\	.	.	8A/	.	8d/	.	8cc\	.	.	.	.	.	.	.	.	.	.	.	.	.	.	.	.	.	.	.
8F#\	.	.	8A/	.	8d/	.	8cc\	.	.	.	.	.	.	.	.	.	.	.	.	.	.	.	.	.	.	.
8F#\	.	.	8A/	.	8d/	.	8cc\	.	.	.	.	.	.	.	.	.	.	.	.	.	.	.	.	.	.	.
8F#\J	.	.	8A/J	.	8d/J	.	8cc\J	.	.	.	.	.	.	.	.	.	.	.	.	.	.	.	.	.	.	.
=20	=20	=20	=20	=20	=20	=20	=20	=20	=20	=20	=20	=20	=20	=20	=20	=20	=20	=20	=20	=20	=20	=20	=20	=20	=20	=20
8G\L	.	.	8G/L	.	8d/L	.	8b\L	.	2.Gn\	-mo	.	2.G/	-mo	.	2.d\	-mo	.	2.b\	-mo	.	2.ryy	2.ryy	2.gg\	.	2.bb\	.
*	*	*	*	*	*	*	*	*	*	*Xij	*	*	*Xij	*	*	*Xij	*	*	*Xij	*	*	*	*	*	*	*
8G\	.	.	8G/	.	8d/	.	8b\	.	.	.	.	.	.	.	.	.	.	.	.	.	.	.	.	.	.	.
8G\	.	.	8G/	.	8d/	.	8b\	.	.	.	.	.	.	.	.	.	.	.	.	.	.	.	.	.	.	.
8G\	.	.	8G/	.	8d/	.	8b\J	.	.	.	.	.	.	.	.	.	.	.	.	.	.	.	.	.	.	.
*	*	*	*	*	*	*	*Xtremolo	*	*	*	*	*	*	*	*	*	*	*	*	*	*	*	*	*	*	*
8G\	.	.	8G/	.	8d/	.	16cc\LL	.	.	.	.	.	.	.	.	.	.	.	.	.	.	.	.	.	.	.
.	.	.	.	.	.	.	16b\	.	.	.	.	.	.	.	.	.	.	.	.	.	.	.	.	.	.	.
8G\J	.	.	8G/J	.	8d/J	.	16a\	.	.	.	.	.	.	.	.	.	.	.	.	.	.	.	.	.	.	.
.	.	.	.	.	.	.	16b\JJ	.	.	.	.	.	.	.	.	.	.	.	.	.	.	.	.	.	.	.
*Xtremolo	*	*	*Xtremolo	*	*	*	*	*	*	*	*	*	*	*	*	*	*	*	*	*	*	*	*	*	*	*
=21	=21	=21	=21	=21	=21	=21	=21	=21	=21	=21	=21	=21	=21	=21	=21	=21	=21	=21	=21	=21	=21	=21	=21	=21	=21	=21
*	*	*	*	*	*	*	*tremolo	*	*	*	*	*	*	*	*	*	*	*	*	*	*	*	*	*	*	*
8C/L	6 5	.	8e\L	.	8g/L	.	8a/L	.	4C\	fa-	.	4e\	fa-	.	2g\	fa-	.	2a\	fa-	.	2.ryy	2.ryy	2gg\	.	2.aa\	.
8C/J	.	.	8e\J	.	8g/	.	8a/	.	.	.	.	.	.	.	.	.	.	.	.	.	.	.	.	.	.	.
*tremolo	*	*	*tremolo	*	*	*	*	*	*	*	*	*	*	*	*	*	*	*	*	*	*	*	*	*	*	*
8D\L	5 #4r	.	8d\L	.	8g/	.	8a/	.	4D\	.	.	4d\	.	.	.	.	.	.	.	.	.	.	.	.	.	.
8D\	.	.	8d\	.	8g/J	.	8a/	.	.	.	.	.	.	.	.	.	.	.	.	.	.	.	.	.	.	.
*	*	*	*	*	*Xtremolo	*	*	*	*	*	*	*	*	*	*	*	*	*	*	*	*	*	*	*	*	*
8D\	.	.	8d\	.	8f#X/L	.	8a/	.	4D\	-ctus	.	4d\	-ctus	.	4f#X\	-ctus	.	4a\	-ctus	.	.	.	4ff#X\	.	.	.
8D\J	.	.	8d\J	.	8f#/J	.	8a/J	.	.	.	.	.	.	.	.	.	.	.	.	.	.	.	.	.	.	.
*Xtremolo	*	*	*Xtremolo	*	*	*	*Xtremolo	*	*	*	*	*	*	*	*	*	*	*	*	*	*	*	*	*	*	*
=22	=22	=22	=22	=22	=22	=22	=22	=22	=22	=22	=22	=22	=22	=22	=22	=22	=22	=22	=22	=22	=22	=22	=22	=22	=22	=22
4G\	.	.	4d\	.	4g/	.	4g/	.	4G\	est	.	4d\	est	.	4g\	est	.	4g\	est	.	2.ryy	2.ryy	4gg\	.	4gg\	.
4r	.	.	4r	.	4r	.	8r	.	4r	.	.	4r	.	.	4r	.	.	4r	.	.	.	.	4r	.	4r	.
!	!	!	!	!	!	!	!	!LO:DY:a:t=pp.	!	!	!	!	!	!	!	!	!	!	!	!	!	!	!	!	!	!
.	.	.	.	.	.	.	8dd\L	pp	.	.	.	.	.	.	.	.	.	.	.	.	.	.	.	.	.	.
4r	.	.	4r	.	4r	.	8dd\	.	4r	.	.	4r	.	.	4r	.	.	4r	.	.	.	.	4r	.	4r	.
.	.	.	.	.	.	.	8dd\J	.	.	.	.	.	.	.	.	.	.	.	.	.	.	.	.	.	.	.
!	!	!	!	!	!	!	!	!	!LO:LB:g=original	!	!	!	!	!	!	!	!	!	!	!	!	!	!	!	!	!
=23	=23	=23	=23	=23	=23	=23	=23	=23	=23	=23	=23	=23	=23	=23	=23	=23	=23	=23	=23	=23	=23	=23	=23	=23	=23	=23
*	*	*	*tremolo	*	*tremolo	*	*	*	*	*	*	*	*	*	*	*	*	*	*	*	*	*	*	*	*	*
!	!	!	!	!LO:DY:a	!	!LO:DY:a	!	!	!	!	!	!	!	!	!	!	!	!	!	!	!	!	!	!	!	!
0.r	.	.	8B/L	pp	8g/L	pp	4.dd\	.	0.r	.	.	0.r	.	.	0.r	.	.	0.r	.	.	2.ryy	2.ryy	0.r	.	0.r	.
.	.	.	8B/	.	8g/	.	.	.	.	.	.	.	.	.	.	.	.	.	.	.	.	.	.	.	.	.
.	.	.	8B/	.	8g/	.	.	.	.	.	.	.	.	.	.	.	.	.	.	.	.	.	.	.	.	.
.	.	.	8B/	.	8g/	.	16bb\LL	.	.	.	.	.	.	.	.	.	.	.	.	.	.	.	.	.	.	.
.	.	.	.	.	.	.	16aa\JJ	.	.	.	.	.	.	.	.	.	.	.	.	.	.	.	.	.	.	.
.	.	.	8B/	.	8g/	.	16gg\LL	.	.	.	.	.	.	.	.	.	.	.	.	.	.	.	.	.	.	.
.	.	.	.	.	.	.	16ff#X\	.	.	.	.	.	.	.	.	.	.	.	.	.	.	.	.	.	.	.
.	.	.	8B/J	.	8g/J	.	16ee\	.	.	.	.	.	.	.	.	.	.	.	.	.	.	.	.	.	.	.
.	.	.	.	.	.	.	16dd\JJ	.	.	.	.	.	.	.	.	.	.	.	.	.	.	.	.	.	.	.
*	*	*	*	*	*Xtremolo	*	*	*	*	*	*	*	*	*	*	*	*	*	*	*	*	*	*	*	*	*
!	!	!	!	!	!	!	!LO:PB:g=original	!	!	!	!	!	!	!	!	!	!	!	!	!	!	!	!	!	!	!
=24	=24	=24	=24	=24	=24	=24	=24	=24	=24	=24	=24	=24	=24	=24	=24	=24	=24	=24	=24	=24	=24	=24	=24	=24	=24	=24
.	.	.	8A/L	.	8g/L	.	16dd\LL	.	.	.	.	.	.	.	.	.	.	.	.	.	2.ryy	2.ryy	.	.	.	.
.	.	.	.	.	.	.	16ee\	.	.	.	.	.	.	.	.	.	.	.	.	.	.	.	.	.	.	.
.	.	.	8A/	.	8g/J	.	16b\	.	.	.	.	.	.	.	.	.	.	.	.	.	.	.	.	.	.	.
.	.	.	.	.	.	.	16cc\JJ	.	.	.	.	.	.	.	.	.	.	.	.	.	.	.	.	.	.	.
*	*	*	*	*	*tremolo	*	*	*	*	*	*	*	*	*	*	*	*	*	*	*	*	*	*	*	*	*
.	.	.	8A/	.	8f#X/L	.	8cc\L	.	.	.	.	.	.	.	.	.	.	.	.	.	.	.	.	.	.	.
.	.	.	8A/	.	8f#/	.	16aa\L	.	.	.	.	.	.	.	.	.	.	.	.	.	.	.	.	.	.	.
.	.	.	.	.	.	.	16gg\JJ	.	.	.	.	.	.	.	.	.	.	.	.	.	.	.	.	.	.	.
.	.	.	8A/	.	8f#/	.	16ff#X\LL	.	.	.	.	.	.	.	.	.	.	.	.	.	.	.	.	.	.	.
.	.	.	.	.	.	.	16ee\	.	.	.	.	.	.	.	.	.	.	.	.	.	.	.	.	.	.	.
.	.	.	8A/J	.	8f#/J	.	16dd\	.	.	.	.	.	.	.	.	.	.	.	.	.	.	.	.	.	.	.
.	.	.	.	.	.	.	16cc\JJ	.	.	.	.	.	.	.	.	.	.	.	.	.	.	.	.	.	.	.
*	*	*	*Xtremolo	*	*Xtremolo	*	*	*	*	*	*	*	*	*	*	*	*	*	*	*	*	*	*	*	*	*
=25	=25	=25	=25	=25	=25	=25	=25	=25	=25	=25	=25	=25	=25	=25	=25	=25	=25	=25	=25	=25	=25	=25	=25	=25	=25	=25
.	.	.	4G/	.	4g/	.	8b\L	.	.	.	.	.	.	.	.	.	.	.	.	.	2.ryy	2.ryy	.	.	.	.
.	.	.	.	.	.	.	8gg\	.	.	.	.	.	.	.	.	.	.	.	.	.	.	.	.	.	.	.
.	.	.	4r	.	4r	.	8dd\	.	.	.	.	.	.	.	.	.	.	.	.	.	.	.	.	.	.	.
.	.	.	.	.	.	.	8dd\J	.	.	.	.	.	.	.	.	.	.	.	.	.	.	.	.	.	.	.
.	.	.	4B/	.	4g/	.	8.ddT\L	.	.	.	.	.	.	.	.	.	.	.	.	.	.	.	.	.	.	.
.	.	.	.	.	.	.	32cc\LL	.	.	.	.	.	.	.	.	.	.	.	.	.	.	.	.	.	.	.
.	.	.	.	.	.	.	32dd\JJJ	.	.	.	.	.	.	.	.	.	.	.	.	.	.	.	.	.	.	.
=26	=26	=26	=26	=26	=26	=26	=26	=26	=26	=26	=26	=26	=26	=26	=26	=26	=26	=26	=26	=26	=26	=26	=26	=26	=26	=26
!	!	!	!LO:TX:t=P:problem=mixed beam	!	!	!	!	!	!	!	!	!	!	!	!	!	!	!	!	!	!	!	!	!	!	!
.	.	.	8c\L	.	16g/LL	.	16ee\LL	.	.	.	.	.	.	.	.	.	.	.	.	.	2.ryy	2.ryy	.	.	.	.
.	.	.	.	.	16e/	.	16cc\	.	.	.	.	.	.	.	.	.	.	.	.	.	.	.	.	.	.	.
.	.	.	8c\	.	16d/	.	16b\	.	.	.	.	.	.	.	.	.	.	.	.	.	.	.	.	.	.	.
.	.	.	.	.	16c/JJ	.	16a\JJ	.	.	.	.	.	.	.	.	.	.	.	.	.	.	.	.	.	.	.
.	.	.	8d\	.	4B/	.	4g/	.	.	.	.	.	.	.	.	.	.	.	.	.	.	.	.	.	.	.
.	.	.	8d\	.	.	.	.	.	.	.	.	.	.	.	.	.	.	.	.	.	.	.	.	.	.	.
.	.	.	8D/	.	4A/	.	4f#X/	.	.	.	.	.	.	.	.	.	.	.	.	.	.	.	.	.	.	.
.	.	.	8D/J	.	.	.	.	.	.	.	.	.	.	.	.	.	.	.	.	.	.	.	.	.	.	.
=27	=27	=27	=27	=27	=27	=27	=27	=27	=27	=27	=27	=27	=27	=27	=27	=27	=27	=27	=27	=27	=27	=27	=27	=27	=27	=27
!	!	!	!	!	!	!	!	!	!LO:TX:a:i:t=Solo	!	!	!	!	!	!	!	!	!	!	!	!	!	!	!	!	!
4GG/	.	.	4G/	.	4B/	.	4g/	.	4r	.	.	0.r	.	.	0.r	.	.	0.r	.	.	2.ryy	2.ryy	0.r	.	0.r	.
4r	.	.	4r	.	4r	.	4r	.	4d\	Cru-	.	.	.	.	.	.	.	.	.	.	.	.	.	.	.	.
4r	.	.	4r	.	4r	.	4r	.	4d\	-ci-	.	.	.	.	.	.	.	.	.	.	.	.	.	.	.	.
!	!	!	!LO:PB:g=original	!	!	!	!	!	!	!	!	!	!	!	!	!	!	!	!	!	!	!	!	!	!	!
=28	=28	=28	=28	=28	=28	=28	=28	=28	=28	=28	=28	=28	=28	=28	=28	=28	=28	=28	=28	=28	=28	=28	=28	=28	=28	=28
*tremolo	*	*	*	*	*	*	*	*	*	*	*	*	*	*	*	*	*	*	*	*	*	*	*	*	*	*
!LO:TX:a:rj:t=Solo	!	!	!	!	!	!	!	!	!	!	!	!	!	!	!	!	!	!	!	!	!	!	!	!	!	!
8G\L	-	.	8r	.	8r	.	8r	.	8d\L	-fi-	.	.	.	.	.	.	.	.	.	.	2.ryy	2.ryy	.	.	.	.
8G\	.	.	8g\L	.	8d/L	.	8b-X\L	.	8B-X\J	.	.	.	.	.	.	.	.	.	.	.	.	.	.	.	.	.
.	.	.	.	.	.	.	.	.	8qqA/	.	.	.	.	.	.	.	.	.	.	.	.	.	.	.	.	.
8G\	.	.	8g\	.	8d/	.	8b-\	.	4G\	-xus	.	.	.	.	.	.	.	.	.	.	.	.	.	.	.	.
8G\	.	.	8g\	.	8d/	.	8b-\	.	.	.	.	.	.	.	.	.	.	.	.	.	.	.	.	.	.	.
8G\	.	.	8g\	.	8d/	.	8b-\	.	4r	.	.	.	.	.	.	.	.	.	.	.	.	.	.	.	.	.
8G\J	.	.	8g\J	.	8d/J	.	8b-\J	.	.	.	.	.	.	.	.	.	.	.	.	.	.	.	.	.	.	.
*Xtremolo	*	*	*	*	*	*	*	*	*	*	*	*	*	*	*	*	*	*	*	*	*	*	*	*	*	*
=29	=29	=29	=29	=29	=29	=29	=29	=29	=29	=29	=29	=29	=29	=29	=29	=29	=29	=29	=29	=29	=29	=29	=29	=29	=29	=29
*	*	*	*tremolo	*	*	*	*	*	*	*	*	*	*	*	*	*	*	*	*	*	*	*	*	*	*	*
8A\L	6\	.	8f#X\L	.	8e-X/L	.	8cc\L	.	4.F#X\	e-	.	.	.	.	.	.	.	.	.	.	2.ryy	2.ryy	.	.	.	.
8A\	.	.	8f#\	.	8e-/	.	8cc\	.	.	.	.	.	.	.	.	.	.	.	.	.	.	.	.	.	.	.
8A\	.	.	8f#\	.	8e-/	.	8cc\	.	.	.	.	.	.	.	.	.	.	.	.	.	.	.	.	.	.	.
8A\	.	.	8f#\J	.	8e-/	.	8cc\	.	8e-X\	-ti-	.	.	.	.	.	.	.	.	.	.	.	.	.	.	.	.
*	*	*	*Xtremolo	*	*	*	*	*	*	*	*	*	*	*	*	*	*	*	*	*	*	*	*	*	*	*
8F#X\	-5	.	8a\L	.	8d/	.	8dd\	.	8d\	-am	.	.	.	.	.	.	.	.	.	.	.	.	.	.	.	.
8F#\J	.	.	8a\J	.	8d/J	.	8cc\J	.	8c\	pro	.	.	.	.	.	.	.	.	.	.	.	.	.	.	.	.
!	!	!	!	!	!LO:LB:g=original	!	!	!	!	!	!	!	!	!	!	!	!	!	!	!	!	!	!	!	!	!
=30	=30	=30	=30	=30	=30	=30	=30	=30	=30	=30	=30	=30	=30	=30	=30	=30	=30	=30	=30	=30	=30	=30	=30	=30	=30	=30
*tremolo	*	*	*tremolo	*	*	*	*	*	*	*	*	*	*	*	*	*	*	*	*	*	*	*	*	*	*	*
!	!	!	!	!	!LO:TX:t=P:problem=mixed beam	!	!	!	!	!	!	!	!	!	!	!	!	!	!	!	!	!	!	!	!	!
8G\L	.	.	8g\L	.	8d/L	.	8b-X\L	.	8B-X\L	no-	.	.	.	.	.	.	.	.	.	.	2.ryy	2.ryy	.	.	.	.
8G\	.	.	8g\	.	8d/	.	8b-\	.	8A\J	.	.	.	.	.	.	.	.	.	.	.	.	.	.	.	.	.
8G\	.	.	8g\	.	8d/	.	8b-\	.	4G\	-bis	.	.	.	.	.	.	.	.	.	.	.	.	.	.	.	.
8G\	.	.	8g\	.	8b-X\	.	8gg\	.	.	.	.	.	.	.	.	.	.	.	.	.	.	.	.	.	.	.
8G\	.	.	8g\	.	8b-\	.	8gg\	.	4r	.	.	.	.	.	.	.	.	.	.	.	.	.	.	.	.	.
8G\J	.	.	8g\J	.	8b-\J	.	8gg\J	.	.	.	.	.	.	.	.	.	.	.	.	.	.	.	.	.	.	.
!	!	!	!	!	!	!	!	!	!	!	!	!LO:PB:g=original	!	!	!	!	!	!	!	!	!	!	!	!	!	!
=31	=31	=31	=31	=31	=31	=31	=31	=31	=31	=31	=31	=31	=31	=31	=31	=31	=31	=31	=31	=31	=31	=31	=31	=31	=31	=31
*	*	*	*	*	*tremolo	*	*tremolo	*	*	*	*	*	*	*	*	*	*	*	*	*	*	*	*	*	*	*
*	*	*	*	*	*2\right	*	*	*	*	*	*	*	*	*	*	*	*	*	*	*	*	*	*	*	*	*
!	!	!LO:DY:a:rj:t=for	!	!LO:DY:a	!LO:SIC:v:o=8b\L	!	!	!LO:DY:a:t=fp.	!	!	!	!	!	!	!	!	!	!	!	!	!	!	!	!	!	!
!	!	!LO:MO:mod=fp	!	!	!	!	!	!	!	!	!	!	!	!	!	!	!	!	!	!	!	!	!	!	!	!
8E-X\L	5 3	f	8e-X\L	fp	8b-\L	fp	8gg\L	fp	2.E-X\	Sub	.	2.B-X\	Sub	.	2.g\	Sub	.	2.b-X\	Sub	.	2.ryy	2.ryy	2.b-X\	.	2.gg\	.
!	!	!	!	!	!LO:SIC:v:o=8b\	!	!	!	!	!	!	!	!	!	!	!	!	!	!	!	!	!	!	!	!	!
8E-\	.	.	8e-\	.	8b-\	.	8gg\	.	.	.	.	.	.	.	.	.	.	.	.	.	.	.	.	.	.	.
!	!	!	!	!	!LO:SIC:v:o=8b\	!	!	!	!	!	!	!	!	!	!	!	!	!	!	!	!	!	!	!	!	!
8E-\	.	.	8e-\	.	8b-\	.	8gg\	.	.	.	.	.	.	.	.	.	.	.	.	.	.	.	.	.	.	.
!	!	!	!	!	!LO:SIC:v:o=8b\	!	!	!	!	!	!	!	!	!	!	!	!	!	!	!	!	!	!	!	!	!
8E-\	.	.	8e-\	.	8b-\	.	8gg\	.	.	.	.	.	.	.	.	.	.	.	.	.	.	.	.	.	.	.
!	!	!LO:DY:a:t=p.	!	!	!LO:SIC:v:o=8b\	!	!	!	!	!	!	!	!	!	!	!	!	!	!	!	!	!	!	!	!	!
!	!	!LO:MO:null:mod=.	!	!	!	!	!	!	!	!	!	!	!	!	!	!	!	!	!	!	!	!	!	!	!	!
8E-\	.	p	8e-\	.	8b-\	.	8gg\	.	.	.	.	.	.	.	.	.	.	.	.	.	.	.	.	.	.	.
!	!	!	!	!	!LO:SIC:v:o=8b\J	!	!	!	!	!	!	!	!	!	!	!	!	!	!	!	!	!	!	!	!	!
8E-\J	.	.	8e-\J	.	8b-\J	.	8gg\J	.	.	.	.	.	.	.	.	.	.	.	.	.	.	.	.	.	.	.
*	*	*	*	*	*Xtremolo	*	*Xtremolo	*	*	*	*	*	*	*	*	*	*	*	*	*	*	*	*	*	*	*
=32	=32	=32	=32	=32	=32	=32	=32	=32	=32	=32	=32	=32	=32	=32	=32	=32	=32	=32	=32	=32	=32	=32	=32	=32	=32	=32
!	!	!	!	!	!	!LO:MO:null:mod=.	!LO:TX:t=P:problem=mixed beam	!	!	!	!	!LO:SIC:v:o=2B\	!	!	!	!	!	!	!	!	!	!	!	!	!	!
8D\L	6 -5	.	8fn\L	.	8a-X/L	fp	8aa-X\L	.	2D\	Pon-	.	2B-\	Pon-	.	2fn\	Pon-	.	2a-X\	Pon-	.	2.ryy	2.ryy	2.ff\	.	2.aa-X\	.
8D\	.	.	8f\	.	8f/	.	8a-X/	.	.	.	.	.	.	.	.	.	.	.	.	.	.	.	.	.	.	.
8D\	.	.	8f\	.	8f/	.	8a-/	.	.	.	.	.	.	.	.	.	.	.	.	.	.	.	.	.	.	.
8D\	.	.	8f\	.	8f/	.	8a-/	.	.	.	.	.	.	.	.	.	.	.	.	.	.	.	.	.	.	.
!	!	!	!	!	!	!	!	!	!	!	!	!LO:SIC:v:o=4B\	!	!	!	!	!	!	!	!	!	!	!	!	!	!
8D\	.	.	8f\	.	8f/	.	8a-/	.	4D\	-ti-	.	4B-\	-ti-	.	4f\	-ti-	.	4a-\	-ti-	.	.	.	.	.	.	.
8D\J	.	.	8f\J	.	8f/J	.	8a-/J	.	.	.	.	.	.	.	.	.	.	.	.	.	.	.	.	.	.	.
!LO:LB:g=original	!	!	!	!	!	!	!	!	!	!	!	!	!	!	!	!	!	!	!	!	!	!	!	!	!	!
=33	=33	=33	=33	=33	=33	=33	=33	=33	=33	=33	=33	=33	=33	=33	=33	=33	=33	=33	=33	=33	=33	=33	=33	=33	=33	=33
*	*	*	*	*	*tremolo	*	*tremolo	*	*	*	*	*	*	*	*	*	*	*	*	*	*	*	*	*	*	*
!LO:SIC:v:o=8E\L	!	!	!	!	!	!	!	!	!LO:SIC:v:o=2E\	!	!	!LO:SIC:v:o=2B\	!	!	!	!	!	!	!	!	!	!	!	!	!	!
8E-\L	.	.	8e-X\L	.	8d-X/L	.	8g/L	.	2E-\	-o	.	2B-\	-o	.	2e-X\	-o	.	2g\	-o	.	2.ryy	2.ryy	2.ee-X\	.	2.gg\	.
!LO:SIC:v:o=8E\	!	!	!	!	!	!	!	!	!	!	!	!	!	!	!	!	!	!	!	!	!	!	!	!	!	!
8E-\	.	.	8e-\	.	8d-/	.	8g/	.	.	.	.	.	.	.	.	.	.	.	.	.	.	.	.	.	.	.
!LO:SIC:v:o=8E\	!	!	!	!	!	!	!	!	!	!	!	!	!	!	!	!	!	!	!	!	!	!	!	!	!	!
8E-\	.	.	8e-\	.	8d-/	.	8g/	.	.	.	.	.	.	.	.	.	.	.	.	.	.	.	.	.	.	.
!LO:SIC:v:o=8E\	!	!	!	!	!	!	!	!	!	!	!	!	!	!	!	!	!	!	!	!	!	!	!	!	!	!
8E-\	.	.	8e-\	.	8d-/	.	8g/	.	.	.	.	.	.	.	.	.	.	.	.	.	.	.	.	.	.	.
!LO:SIC:v:o=8E\	!	!	!	!	!	!	!	!	!LO:SIC:v:o=4E\	!	!	!LO:SIC:v:o=4B\	!	!	!	!	!	!	!	!	!	!	!	!	!	!
8E-\	.	.	8e-\	.	8d-/	.	8g/	.	4E-\	Pi-	.	4B-\	Pi-	.	4e-\	Pi-	.	4g\	Pi-	.	.	.	.	.	.	.
!LO:SIC:v:o=8E\J	!	!	!	!	!	!	!	!	!	!	!	!	!	!	!	!	!	!	!	!	!	!	!	!	!	!
8E-\J	.	.	8e-\J	.	8d-/J	.	8g/J	.	.	.	.	.	.	.	.	.	.	.	.	.	.	.	.	.	.	.
!	!	!	!	!	!	!	!LO:LB:g=original	!	!LO:LB:g=original	!	!	!	!	!	!	!	!	!LO:LB:g=original	!	!	!	!	!	!	!	!
=34	=34	=34	=34	=34	=34	=34	=34	=34	=34	=34	=34	=34	=34	=34	=34	=34	=34	=34	=34	=34	=34	=34	=34	=34	=34	=34
!LO:SIC:v:o=8E\L	!	!	!	!	!	!	!	!	!LO:SIC:v:o=2.E\	!	!	!	!	!	!	!	!	!	!	!	!	!	!LO:SIC:v:o=2.ff#\	!	!	!
8F\L	4 n2	.	8f\L	.	8c/L	.	8an/L	.	2.E-\	-la-	.	2.c\	-la-	.	2.f\	-la-	.	2.an\	-la-	.	2.ryy	2.ryy	2.ff\	.	2.aan\	.
!LO:SIC:v:o=8E\	!	!	!	!	!	!	!	!	!	!	!	!	!	!	!	!	!	!	!	!	!	!	!	!	!	!
8F\	.	.	8f\	.	8c/	.	8a/	.	.	.	.	.	.	.	.	.	.	.	.	.	.	.	.	.	.	.
!LO:SIC:v:o=8E\	!	!	!	!	!	!	!	!	!	!	!	!	!	!	!	!	!	!	!	!	!	!	!	!	!	!
8F\	.	.	8f\	.	8c/	.	8a/	.	.	.	.	.	.	.	.	.	.	.	.	.	.	.	.	.	.	.
!LO:SIC:v:o=8E\	!	!	!	!	!	!	!	!	!	!	!	!	!	!	!	!	!	!	!	!	!	!	!	!	!	!
8F\	.	.	8f\	.	8c/	.	8a/	.	.	.	.	.	.	.	.	.	.	.	.	.	.	.	.	.	.	.
!LO:SIC:v:o=8E\	!	!	!	!	!	!	!	!	!	!	!	!	!	!	!	!	!	!	!	!	!	!	!	!	!	!
8F\	.	.	8f\	.	8c/	.	8a/	.	.	.	.	.	.	.	.	.	.	.	.	.	.	.	.	.	.	.
!LO:SIC:v:o=8E\J	!	!	!	!	!	!	!	!	!	!	!	!	!	!	!	!	!	!	!	!	!	!	!	!	!	!
8F\J	.	.	8f\J	.	8c/J	.	8a/J	.	.	.	.	.	.	.	.	.	.	.	.	.	.	.	.	.	.	.
=35	=35	=35	=35	=35	=35	=35	=35	=35	=35	=35	=35	=35	=35	=35	=35	=35	=35	=35	=35	=35	=35	=35	=35	=35	=35	=35
!	!	!	!	!	!	!	!	!	!	!	!	!LO:SIC:v:o=2.B\	!	!	!	!	!	!	!	!	!	!	!	!	!	!
8D\L	-6	.	8d\L	.	8f/L	.	8b-X\L	.	2.D\	-to	.	2.B-\	-to	.	2.f\	-to	.	2.b-X\	-to	.	2.ryy	2.ryy	2.ff\	.	2.bb-X\	.
8D\	.	.	8d\	.	8f/	.	8b-\	.	.	.	.	.	.	.	.	.	.	.	.	.	.	.	.	.	.	.
8D\	.	.	8d\	.	8f/	.	8b-\	.	.	.	.	.	.	.	.	.	.	.	.	.	.	.	.	.	.	.
8D\	.	.	8d\	.	8f/	.	8b-\	.	.	.	.	.	.	.	.	.	.	.	.	.	.	.	.	.	.	.
8D\	.	.	8d\	.	8f/	.	8b-\	.	.	.	.	.	.	.	.	.	.	.	.	.	.	.	.	.	.	.
8D\J	.	.	8d\J	.	8f/J	.	8b-\J	.	.	.	.	.	.	.	.	.	.	.	.	.	.	.	.	.	.	.
=36	=36	=36	=36	=36	=36	=36	=36	=36	=36	=36	=36	=36	=36	=36	=36	=36	=36	=36	=36	=36	=36	=36	=36	=36	=36	=36
!	!	!	!	!	!	!	!	!	!LO:SIC:v:o=2F#\	!	!	!	!	!	!	!	!	!	!	!	!	!	!	!	!	!
8F\L	4 n2	.	8g\L	.	8d/L	.	8bn\L	.	2Fn\	paſ-	.	2d\	paſ-	.	2g\	paſ-	.	2bn\	paſ-	.	2.ryy	2.ryy	2.gg\	.	2.bbn\	.
8F\	.	.	8g\	.	8d/	.	8b\	.	.	.	.	.	.	.	.	.	.	.	.	.	.	.	.	.	.	.
8F\	.	.	8g\	.	8d/	.	8b\	.	.	.	.	.	.	.	.	.	.	.	.	.	.	.	.	.	.	.
8F\	.	.	8g\	.	8d/	.	8b\	.	.	.	.	.	.	.	.	.	.	.	.	.	.	.	.	.	.	.
!	!	!	!	!	!	!	!	!	!LO:SIC:v:o=4F#\	!	!	!	!	!	!	!	!	!	!	!	!	!	!	!	!	!
8F\	.	.	8g\	.	8d/	.	8b\	.	4F\	-sus	.	4d\	-sus	.	4g\	-sus	.	4b\	-sus	.	.	.	.	.	.	.
8F\J	.	.	8g\J	.	8d/J	.	8b\J	.	.	.	.	.	.	.	.	.	.	.	.	.	.	.	.	.	.	.
=37	=37	=37	=37	=37	=37	=37	=37	=37	=37	=37	=37	=37	=37	=37	=37	=37	=37	=37	=37	=37	=37	=37	=37	=37	=37	=37
8E-X\L	6	.	8e-X\L	.	8g/L	.	8cc\L	.	2E-X\	et	.	2c\	et	.	2g\	et	.	2cc\	et	.	2.ryy	2.ryy	2.gg\	.	2.ccc\	.
8E-\	.	.	8e-\	.	8g/	.	8cc\	.	.	.	.	.	.	.	.	.	.	.	.	.	.	.	.	.	.	.
8E-\	.	.	8e-\	.	8g/	.	8cc\	.	.	.	.	.	.	.	.	.	.	.	.	.	.	.	.	.	.	.
8E-\	.	.	8e-\	.	8g/	.	8cc\	.	.	.	.	.	.	.	.	.	.	.	.	.	.	.	.	.	.	.
8E-\	.	.	8e-\	.	8g/	.	8cc\	.	4E-\	se-	.	4c\	se-	.	4g\	se-	.	4cc\	se-	.	.	.	.	.	.	.
8E-\J	.	.	8e-\J	.	8g/J	.	8cc\J	.	.	.	.	.	.	.	.	.	.	.	.	.	.	.	.	.	.	.
=38	=38	=38	=38	=38	=38	=38	=38	=38	=38	=38	=38	=38	=38	=38	=38	=38	=38	=38	=38	=38	=38	=38	=38	=38	=38	=38
8G\L	#4 2	.	8a\L	.	8en/L	.	8cc#X\L	.	2G\	-pul-	.	2en\	-pul-	.	2a\	-pul-	.	2cc#X\	-pul-	.	2.ryy	2.ryy	2.aa\	.	2.ccc#X\	.
8G\	.	.	8a\	.	8e/	.	8cc#\	.	.	.	.	.	.	.	.	.	.	.	.	.	.	.	.	.	.	.
8G\	.	.	8a\	.	8e/	.	8cc#\	.	.	.	.	.	.	.	.	.	.	.	.	.	.	.	.	.	.	.
8G\	.	.	8a\	.	8e/	.	8cc#\	.	.	.	.	.	.	.	.	.	.	.	.	.	.	.	.	.	.	.
8G\	.	.	8a\	.	8e/	.	8cc#\	.	4G\	-tus	.	4e\	-tus	.	4a\	-tus	.	4cc#\	-tus	.	.	.	.	.	.	.
8G\J	.	.	8a\J	.	8e/J	.	8cc#\J	.	.	.	.	.	.	.	.	.	.	.	.	.	.	.	.	.	.	.
*	*	*	*Xtremolo	*	*Xtremolo	*	*Xtremolo	*	*	*	*	*	*	*	*	*	*	*	*	*	*	*	*	*	*	*
=39	=39	=39	=39	=39	=39	=39	=39	=39	=39	=39	=39	=39	=39	=39	=39	=39	=39	=39	=39	=39	=39	=39	=39	=39	=39	=39
4F#X\	6	.	4d\	.	4a/	.	4dd\	.	4F#X\	est	.	4d\	est	.	4a\	est	.	4dd\	est	.	2.ryy	2.ryy	4aa\	.	4ddd\	.
4D\	.	.	4r	.	4r	.	8r	.	4r	.	.	4r	.	.	4r	.	.	4r	.	.	.	.	4r	.	4r	.
.	.	.	.	.	.	.	8aa\L	.	.	.	.	.	.	.	.	.	.	.	.	.	.	.	.	.	.	.
4r	.	.	4r	.	4r	.	8ff#X\	.	4r	.	.	4r	.	.	4r	.	.	4r	.	.	.	.	4r	.	4r	.
.	.	.	.	.	.	.	8dd\J	.	.	.	.	.	.	.	.	.	.	.	.	.	.	.	.	.	.	.
!	!	!	!	!	!	!	!	!	!	!	!	!	!	!	!	!	!	!	!	!	!	!	!	!	!LO:LB:g=original	!
=40	=40	=40	=40	=40	=40	=40	=40	=40	=40	=40	=40	=40	=40	=40	=40	=40	=40	=40	=40	=40	=40	=40	=40	=40	=40	=40
4E-X\	6\	.	4e-X\	.	4g/	.	4cc#X\	.	4E-X\	se-	.	4B-X\	se-	.	4g\	se-	.	4cc#X\	se-	.	2.ryy	2.ryy	4gg\	.	4ccc#X\	.
4E-\	.	.	4e-\	.	4g/	.	4cc#\	.	4E-\	-pul-	.	4B-\	-pul-	.	4g\	-pul-	.	4cc#\	-pul-	.	.	.	4gg\	.	4ccc#\	.
4E-\	.	.	4e-\	.	4g/	.	4cc#\	.	4E-\	-tus	.	4G/	-tus	.	4g\	-tus	.	4cc#\	-tus	.	.	.	4gg\	.	4ccc#\	.
!	!	!	!	!	!	!	!	!	!	!	!	!	!	!	!	!	!	!	!	!	!	!	!LO:LB:g=original	!	!	!
=41	=41	=41	=41	=41	=41	=41	=41	=41	=41	=41	=41	=41	=41	=41	=41	=41	=41	=41	=41	=41	=41	=41	=41	=41	=41	=41
!	!	!	!	!LO:MO:null:mod=!LO&colon;DY&colon;ed=brack	!	!LO:MO:null:mod=!LO&colon;DY&colon;ed=brack	!	!LO:MO:null:mod=!LO&colon;DY&colon;ed=brack	!	!	!	!	!	!	!	!	!	!	!	!	!	!	!	!LO:MO:null:mod=!LO&colon;DY&colon;ed=brack	!	!LO:MO:null:mod=!LO&colon;DY&colon;ed=brack
!	!	!	!	!	!	!	!	!	!	!	!	!	!	!	!	!	!	!	!	!	!	!	!	!	!	!
!	!	!LO:DY:a:rj:t=pp&colon;	!	!LO:MO:null:mod=pp	!LO:SIC:v:o=8f/L	!LO:MO:null:mod=pp	!	!LO:MO:null:mod=pp	!	!	!	!	!	!	!	!	!	!	!	!	!	!	!	!LO:MO:null:mod=pp	!	!LO:MO:null:mod=pp
4D\	#	pp	8d\L	.	8f#/L	.	2.dd\	.	4D\	est	.	4A\	est	.	4f#X\	est	.	4dd\	est.	.	2.ryy	2.ryy	8ff#X\L	.	8ddd\L	.
!	!	!	!	!	!LO:SIC:v:o=16f/L	!	!	!	!	!	!	!	!	!	!	!	!	!	!	!	!	!	!	!	!	!
.	.	.	16d\L	.	16f#/L	.	.	.	.	.	.	.	.	.	.	.	.	.	.	.	.	.	16dd\L	.	16ff#X\L	.
.	.	.	16e\JJ	.	16g/JJ	.	.	.	.	.	.	.	.	.	.	.	.	.	.	.	.	.	16ee\JJ	.	16gg\JJ	.
!	!	!	!LO:TX:t=P:problem=mixed beam	!	!	!	!	!	!	!	!	!	!	!	!	!	!	!	!	!	!	!	!	!	!	!
4r	.	.	8f#X\L	.	8a/L	.	.	.	4r	.	.	4r	.	.	4r	.	.	4r	.	.	.	.	8ff#\L	.	8aa\L	.
.	.	.	8f#\	.	8a/	.	.	.	.	.	.	.	.	.	.	.	.	.	.	.	.	.	8ff#\J	.	8aa\J	.
!	!	!	!	!	!	!	!	!	!	!	!	!	!	!	!	!	!	!	!	!	!	!	!	!	!LO:SIC:v:o=8bb-X\L	!
4r	.	.	8g\	.	8b/	.	.	.	4r	.	.	4r	.	.	4r	.	.	4r	.	.	.	.	4gg\	.	8bbL	.
!	!	!	!	!	!	!	!	!	!	!	!	!	!	!	!	!	!	!	!	!	!	!	!	!	!LO:SIC:v:o=8aa\J	!
.	.	.	8B/J	.	8g/J	.	.	.	.	.	.	.	.	.	.	.	.	.	.	.	.	.	.	.	8ggJ	.
=42	=42	=42	=42	=42	=42	=42	=42	=42	=42	=42	=42	=42	=42	=42	=42	=42	=42	=42	=42	=42	=42	=42	=42	=42	=42	=42
!	!	!	!LO:SIC:v:o=8f\L	!	!	!	!	!	!	!	!	!	!	!	!	!	!	!	!	!	!	!	!LO:SIC:v:o=8ff\L	!	!	!
4DD/	.	.	8f#L	.	8a/L	.	2.dd\	.	1.r	.	.	1.r	.	.	1.r	.	.	1.r	.	.	2.ryy	2.ryy	8ff#\L	.	8aa\L	.
!	!	!	!	!	!	!	!	!	!	!	!	!	!	!	!	!	!	!	!	!	!	!	!	!	!LO:SIC:v:o=16ff\L	!
.	.	.	16d\L	.	16f#X/L	.	.	.	.	.	.	.	.	.	.	.	.	.	.	.	.	.	16dd\L	.	16ff#\L	.
.	.	.	16e\JJ	.	16g/JJ	.	.	.	.	.	.	.	.	.	.	.	.	.	.	.	.	.	16ee\JJ	.	16gg\JJ	.
!	!	!	!LO:LB:g=original	!	!	!	!	!	!	!	!	!	!	!	!	!	!	!	!	!	!	!	!LO:SIC:v:o=8ff\L	!	!	!
4r	.	.	8f#X\L	.	8a/L	.	.	.	.	.	.	.	.	.	.	.	.	.	.	.	.	.	8ff#\L	.	8aa\L	.
!	!	!	!	!	!	!	!	!	!	!	!	!	!	!	!	!	!	!	!	!	!	!	!LO:SIC:v:o=8ff\J	!	!	!
.	.	.	8f#\	.	8a/	.	.	.	.	.	.	.	.	.	.	.	.	.	.	.	.	.	8ff#\J	.	8aa\J	.
!	!	!	!	!	!	!	!	!	!	!	!	!	!	!	!	!	!	!	!	!	!	!	!	!	!LO:SIC:v:o=8bb-X\L	!
4r	.	.	8g\	.	8b/	.	.	.	.	.	.	.	.	.	.	.	.	.	.	.	.	.	4gg\	.	8bbL	.
!	!	!	!	!	!	!	!	!	!	!	!	!	!	!	!	!	!	!	!	!	!	!	!	!	!LO:SIC:v:o=8aa\J	!
.	.	.	8e\J	.	8g/J	.	.	.	.	.	.	.	.	.	.	.	.	.	.	.	.	.	.	.	8ggJ	.
=43	=43	=43	=43	=43	=43	=43	=43	=43	=43	=43	=43	=43	=43	=43	=43	=43	=43	=43	=43	=43	=43	=43	=43	=43	=43	=43
!	!	!	!	!	!LO:SIC:v:o=4f/	!	!	!	!	!	!	!	!	!	!	!	!	!	!	!	!	!	!LO:SIC:v:o=4ff\	!	!	!
4D\	.	.	4d\	.	4f#/	.	4dd\	.	.	.	.	.	.	.	.	.	.	.	.	.	2.ryy	2.ryy	4ff#\	.	4aa\	.
!	!	!	!	!	!LO:SIC:v:o=4f/	!	!	!	!	!	!	!	!	!	!	!	!	!	!	!	!	!	!LO:SIC:v:o=4ff\	!	!	!
4D\	.	.	4A/	.	4f#/	.	4dd\	.	.	.	.	.	.	.	.	.	.	.	.	.	.	.	4ff#\	.	4aa\	.
!	!	!	!	!	!LO:SIC:v:o=4f/	!	!	!	!	!	!	!	!	!	!	!	!	!	!	!	!	!	!LO:SIC:v:o=4ff\	!	!	!
4D\	.	.	4A/	.	4f#/	.	4dd\	.	.	.	.	.	.	.	.	.	.	.	.	.	.	.	4ff#\	.	4aa\	.
=44	=44	=44	=44	=44	=44	=44	=44	=44	=44	=44	=44	=44	=44	=44	=44	=44	=44	=44	=44	=44	=44	=44	=44	=44	=44	=44
!	!	!	!	!	!LO:SIC:v:o=2f/	!	!	!	!	!	!	!	!	!	!	!	!	!	!	!	!	!	!LO:SIC:v:o=2.ff\	!	!	!
2D\	.	.	2A/	.	2f#/	.	2dd\	.	2.r	.	.	2.r	.	.	2.r	.	.	2.r	.	.	2.ryy	2.ryy	2.ff#\	.	2.aa\	.
4r	.	.	4r	.	4r	.	4r	.	.	.	.	.	.	.	.	.	.	.	.	.	.	.	.	.	.	.
==	==	==	==	==	==	==	==	==	==	==	==	==	==	==	==	==	==	==	==	==	==	==	==	==	==	==
*-	*-	*-	*-	*-	*-	*-	*-	*-	*-	*-	*-	*-	*-	*-	*-	*-	*-	*-	*-	*-	*-	*-	*-	*-	*-	*-
!!!system-decoration: [(g1)][(g2)][(g3)][(g4)]s12
!!!RDF**kern: | = vertical stroke
!!!filter-modern: sic -sq | shed -e "s/TX(.*):t=P:/tx$1:t=P:/LG" | shed -k -e "s/#X/#/g" | shed -k -e "s/n//g" | shed -k -e "s/LO:N:vis/LO:n:vis:/L" | shed -e "s/:rj/:RJ/L" | shed -e "s/^(\d+[\/\\]right)/$1yy/I;s/^(\d+[\/\\]left)/$1yy/I" | shed -e "s/LO:DY:(a|b|rj)/LO:dy:$1/L" | shed -e "s/-//B" | modori -m | tie -s | autostem -r | humtr -p
!!!ENC: Anastazja Marusiak
!!!END: 2021-12-07
!!!EED: Marta Lawrence
!!!EEV: 2021-12-09
!!!ENC-modern: Andrzej Borzym
!!!END-modern: 2022-11-14
